SVG/expand.svg

<?xml version="1.0" encoding="utf-8"?>
<!-- Generated by IcoMoon.io -->
<!DOCTYPE svg PUBLIC "-//W3C//DTD SVG 1.1//EN" "http://www.w3.org/Graphics/SVG/1.1/DTD/svg11.dtd">
<svg version="1.1" xmlns="http://www.w3.org/2000/svg" xmlns:xlink="http://www.w3.org/1999/xlink" width="12" height="14" viewBox="0 0 12 14">
<path fill="#444444" d="M5.898 8.25q0 0.102-0.078 0.18l-2.594 2.594 1.125 1.125q0.148 0.148 0.148 0.352t-0.148 0.352-0.352 0.148h-3.5q-0.203 0-0.352-0.148t-0.148-0.352v-3.5q0-0.203 0.148-0.352t0.352-0.148 0.352 0.148l1.125 1.125 2.594-2.594q0.078-0.078 0.18-0.078t0.18 0.078l0.891 0.891q0.078 0.078 0.078 0.18zM12 1.5v3.5q0 0.203-0.148 0.352t-0.352 0.148-0.352-0.148l-1.125-1.125-2.594 2.594q-0.078 0.078-0.18 0.078t-0.18-0.078l-0.891-0.891q-0.078-0.078-0.078-0.18t0.078-0.18l2.594-2.594-1.125-1.125q-0.148-0.148-0.148-0.352t0.148-0.352 0.352-0.148h3.5q0.203 0 0.352 0.148t0.148 0.352z"></path>
</svg>

<svg xmlns="http://www.w3.org/2000/svg" viewBox="0 0 12 14"><path d="M5.898 8.25q0 .102-.078.18l-2.594 2.594L4.35 12.15q.15.147.15.35t-.15.353T4 13H.5q-.204 0-.353-.147T0 12.5V9q0-.202.147-.35T.5 8.5t.35.15l1.126 1.124L4.57 7.18q.078-.078.18-.078t.18.078l.89.89q.08.08.08.18zM12 1.5V5q0 .203-.148.352T11.5 5.5t-.352-.148l-1.125-1.125L7.43 6.82q-.08.08-.18.08t-.18-.08l-.892-.89Q6.1 5.852 6.1 5.75t.078-.18l2.594-2.594L7.647 1.85Q7.5 1.704 7.5 1.5t.147-.353T8 1h3.5q.202 0 .35.147T12 1.5z" /></svg>
